src/assets/svgs/avalanche-logo.svg

<svg width="17" height="17" viewBox="0 0 17 17" fill="none" xmlns="http://www.w3.org/2000/svg">
<path fill-rule="evenodd" clip-rule="evenodd" d="M16.9943 8.49999C16.9943 13.1882 13.1913 16.9887 8.49996 16.9887C3.80866 16.9887 0.00561523 13.1882 0.00561523 8.49999C0.00561523 3.81181 3.80866 0.0112915 8.49996 0.0112915C13.1913 0.0112915 16.9943 3.81181 16.9943 8.49999ZM6.0929 11.8781H4.44439C4.09799 11.8781 3.92688 11.8781 3.82255 11.8114C3.70986 11.7384 3.641 11.6174 3.63266 11.4839C3.62639 11.3609 3.71195 11.2107 3.88306 10.9105L7.95345 3.74061C8.12665 3.43615 8.21429 3.28392 8.32488 3.22761C8.44382 3.16714 8.58573 3.16714 8.70467 3.22761C8.81527 3.28392 8.90292 3.43615 9.07611 3.74061L9.91289 5.20035L9.91716 5.2078C10.1042 5.53443 10.1991 5.70006 10.2405 5.87391C10.2864 6.06368 10.2864 6.26387 10.2405 6.45364C10.1988 6.6288 10.1049 6.79564 9.91498 7.1272L7.7769 10.9042L7.77137 10.9139C7.58307 11.2432 7.48764 11.4101 7.35538 11.536C7.2114 11.6737 7.0382 11.7737 6.8483 11.8301C6.6751 11.8781 6.48104 11.8781 6.0929 11.8781ZM10.2559 11.8781H12.6181C12.9666 11.8781 13.1419 11.8781 13.2463 11.8093C13.3589 11.7363 13.4298 11.6132 13.4362 11.4798C13.4422 11.3608 13.3585 11.2165 13.1945 10.9336C13.1888 10.924 13.1832 10.9142 13.1774 10.9042L11.9942 8.88147L11.9807 8.8587C11.8145 8.57772 11.7305 8.43583 11.6227 8.38099C11.5039 8.32051 11.3639 8.32051 11.2451 8.38099C11.1365 8.43729 11.0489 8.58535 10.8757 8.88355L9.6967 10.9063L9.69266 10.9133C9.52007 11.211 9.43382 11.3598 9.44004 11.4819C9.44839 11.6154 9.51725 11.7384 9.62992 11.8114C9.73218 11.8781 9.90746 11.8781 10.2559 11.8781Z" fill="#E84142"/>
</svg>

<svg width="17" height="17" fill="none" xmlns="http://www.w3.org/2000/svg"><path fill-rule="evenodd" clip-rule="evenodd" d="M16.994 8.5c0 4.688-3.803 8.489-8.494 8.489S.006 13.189.006 8.5C.006 3.812 3.809.011 8.5.011s8.494 3.8 8.494 8.489zM6.093 11.878H4.444c-.346 0-.517 0-.621-.067a.419.419 0 0 1-.19-.327c-.007-.123.079-.273.25-.573l4.07-7.17c.174-.305.261-.457.372-.513a.42.42 0 0 1 .38 0c.11.056.198.208.371.513l.837 1.46.004.007c.187.326.282.492.324.666.045.19.045.39 0 .58-.042.175-.136.342-.326.673l-2.138 3.777-.006.01c-.188.33-.283.496-.416.622a1.244 1.244 0 0 1-.507.294c-.173.048-.367.048-.755.048zm4.163 0h2.362c.349 0 .524 0 .628-.069a.418.418 0 0 0 .19-.33c.006-.118-.078-.262-.242-.545-.005-.01-.01-.02-.017-.03l-1.183-2.023-.013-.022c-.166-.281-.25-.423-.358-.478a.416.416 0 0 0-.378 0c-.108.056-.196.204-.37.503l-1.178 2.022-.004.007c-.173.298-.26.447-.253.569a.422.422 0 0 0 .19.33c.102.066.277.066.626.066z" fill="#E84142"/></svg>
